!!!!SEGMENT: pl-cz--ii-123--004_kottritsch-franciszek--mittit-ad-virginem-zdrowals-badlz-maria.krn
!!!cenid: 17xx:930
!!!COM: Kottritsch, Franciszek
!!!COM-rismID: pe30040598
!!!CDT: ~1727-1787
!!!CNT:
!!!OPR: Mittit ad virginem
!!!OTL: Zdrowaś bądź Maria
!!!OMV: 002
!!!PDT:
!!!AGN: Sacred
!!!SMS-siglum: PL-CZ
!!!SMS-shelfmark: II-123
!!!SMS-shelfwork: 002-002 M
!!!SMS-variant:
!!!SMS-altvar:
!!!NIFC-rismSourceID: 300000621
!!!NIFC-islandoraID: pl-cz:32159
!!!URL-pdf-islandora: https://repozytorium.nifc.pl/islandora/object/pl-cz%3A32159/datastream/PDF/view
!!!URL-scan:
!!!ONB-nifc: UWAGA: części Mittit ad virginem: Mittit ad virginem, Zdrowaś bądź Maria, Super bientium, Qui nobis tribuat. Uwaga: numeracja części od 003. Rorate caeli to osobny utwór
!!!AIN: 1 alto 1 bass 2 oboe 1 organ 2 soprn 1 tenor 2 violn
!!!key: F
**kern	**fba	**kern	**kern	**kern	**text	**text	**text	**text	**text	**text	**kern	**kern	**text	**text	**text	**text	**text	**text	**text	**kern	**text	**text	**text	**text	**text	**text	**text	**kern	**text	**text	**text	**text	**text	**text	**kern	**kern
*	*	*group3	*group3	*group2	*	*	*	*	*	*	*group2	*group2	*	*	*	*	*	*	*	*group2	*	*	*	*	*	*	*	*group2	*	*	*	*	*	*	*group1	*group1
*part10	*part10	*part9	*part8	*part7	*part7	*part7	*part7	*part7	*part7	*part7	*part6	*part5	*part5	*part5	*part5	*part5	*part5	*	*part5	*part4	*part4	*part4	*part4	*part4	*part4	*part4	*part4	*part3	*part3	*part3	*part3	*part3	*part3	*part3	*part2	*part1
*staff10	*	*staff9	*staff8	*staff7	*staff7	*staff7	*staff7	*staff7	*staff7	*staff7	*staff6	*staff5	*staff5	*staff5	*staff5	*staff5	*staff5	*	*staff5	*staff4	*staff4	*staff4	*staff4	*staff4	*staff4	*staff4	*staff4	*staff3	*staff3	*staff3	*staff3	*staff3	*staff3	*staff3	*staff2	*staff1
*	*	*	*	*	*v:1	*v:2	*v:3	*v:4	*v:5	*v:6	*	*	*v:1	*	*v:3	*v:4	*v:5	*	*v:6	*	*v:1	*v:2	*v:3	*	*v:4	*v:5	*v:6	*	*v:1	*v:2	*v:3	*v:4	*v:5	*v:6	*	*
*I"Organo.	*	*I"Violino Secundo	*I"Violino Primo.	*I"Baſso.	*	*	*	*	*	*	*I"Tenore	*I"Alto.	*	*	*	*	*	*	*	*I"Canto Secundo	*	*	*	*	*	*	*	*I"Canto Primo.	*	*	*	*	*	*	*I"Hoboa Secundo.	*I"Hoboa Primo.
*I'org	*	*I'vl 2	*I'vl 1	*I'B	*	*	*	*	*	*	*I'T	*I'A	*	*	*	*	*	*	*	*I'S 2	*	*	*	*	*	*	*	*I'S 1	*	*	*	*	*	*	*I'ob 2	*I'ob 1
*Iorgan	*	*Ivioln	*Ivioln	*Ibass	*	*	*	*	*	*	*Itenor	*Ialto	*	*	*	*	*	*	*	*Isoprn	*	*	*	*	*	*	*	*Isoprn	*	*	*	*	*	*	*Ioboe	*Ioboe
*ICklav	*	*ICstr	*ICstr	*ICvox	*	*	*	*	*	*	*ICvox	*ICvox	*	*	*	*	*	*	*	*ICvox	*	*	*	*	*	*	*	*ICvox	*	*	*	*	*	*	*ICww	*ICww
*	*	*	*	*IGcoro	*	*	*	*	*	*	*IGcoro	*IGcoro	*	*	*	*	*	*	*	*IGcoro	*	*	*	*	*	*	*	*IGcoro	*	*	*	*	*	*	*	*
*clefF4	*	*clefG2	*clefG2	*clefF4	*	*	*	*	*	*	*clefC4	*clefC3	*	*	*	*	*	*	*	*clefC1	*	*	*	*	*	*	*	*clefC1	*	*	*	*	*	*	*clefG2	*clefG2
*k[b-]	*	*k[b-]	*k[b-]	*k[b-]	*	*	*	*	*	*	*k[b-]	*k[b-]	*	*	*	*	*	*	*	*k[b-]	*	*	*	*	*	*	*	*k[b-]	*	*	*	*	*	*	*k[b-]	*k[b-]
*F:	*	*F:	*F:	*F:	*	*	*	*	*	*	*F:	*F:	*	*	*	*	*	*	*	*F:	*	*	*	*	*	*	*	*F:	*	*	*	*	*	*	*F:	*F:
*M4/4	*	*M4/4	*M4/4	*M4/4	*	*	*	*	*	*	*M4/4	*M4/4	*	*	*	*	*	*	*	*M4/4	*	*	*	*	*	*	*	*M4/4	*	*	*	*	*	*	*M4/4	*M4/4
*met(c)	*	*met(c)	*met(c)	*met(c)	*	*	*	*	*	*	*met(c)	*met(c)	*	*	*	*	*	*	*	*met(c)	*	*	*	*	*	*	*	*met(c)	*	*	*	*	*	*	*met(c)	*met(c)
=1	=1	=1	=1	=1	=1	=1	=1	=1	=1	=1	=1	=1	=1	=1	=1	=1	=1	=1	=1	=1	=1	=1	=1	=1	=1	=1	=1	=1	=1	=1	=1	=1	=1	=1	=1	=1
*	*	*	*	*	*verse1	*verse2	*verse3	*verse4	*verse5	*verse6	*	*	*verse1	*verse2	*verse3	*verse4	*verse5	*	*verse6	*	*verse1	*verse2	*verse3	*	*verse4	*verse5	*verse6	*	*verse1	*verse2	*verse3	*verse4	*verse5	*verse6	*	*
!	!	!LO:TX:a:i:t=Tutti	!LO:TX:a:i:t=Tutti	!	!	!	!	!	!	!	!	!	!	!	!	!	!	!	!	!	!	!	!	!	!	!	!	!	!	!	!	!	!	!	!LO:TX:b:i:t=Zdrowas bąd maria 3tr rasi	!LO:TX:b:i:t=Zdrowas 3tr razi bąd maria
4F\	.	4cc\	4aa\	4F\	Zdro-	Marya	Łas-	Błogosławionaś	Między	A-	1ryy	4a\	Zdro-	Maria	Łas-	Błogosławiona	Między	.	A-	4f/	Zdro-	Ma-	Łas-	.	Bło-	Mię-	A-	4f/	Zdro-	Ma-	Łas-	Bło-	Mię-	A-	4f/	4f/
4FF/	.	4ff\	4aa\	4F\	-waś	Wielebna	-kiś	Ty	Niewiastami	-men	.	4a\	-was	Tacet.	-kiś	Tacet	Niewiaſtami	.	-men	4f/	-waś	-ry-	-kiś	.	-go-	-dzy	-men	4f/	-waś	-ri-	-kis	-go-	-dzy	-men	4f/	4f/
4F\	.	4cc\	4aa\	4F\	bądś	&c	peł-	&c	&c	wsz-	.	4a\	bąds	.	peł-	.	Tacet	.	wszys-	4f/	bądś	-a	peł-	.	-sła-	Nie-	Wszys-	4a\	bądz	-a	peł-	-sła-	nie-	wszy-	4c/	4g/
.	.	.	.	.	.	.	.	.	.	.	.	8qqg/	.	.	.	.	.	.	.	.	.	.	.	.	.	.	.	.	.	.	.	.	.	.	.	.
4D\	6	4dd\	4ff\	4D\	Ma-	Tacet	-na	Tacet	Tacet	-sci	.	4f\	Ma-	.	-na	.	.	.	-cy	4d/	Ma-	Wie-	-na	.	-wio-	-wia-	-cy	4bn\	Ma-	Wie-	-na	-wio-	-wias-	-scy	4f/	4bn/
=2	=2	=2	=2	=2	=2	=2	=2	=2	=2	=2	=2	=2	=2	=2	=2	=2	=2	=2	=2	=2	=2	=2	=2	=2	=2	=2	=2	=2	=2	=2	=2	=2	=2	=2	=2	=2
.	.	.	.	.	.	.	.	.	.	.	.	8qqf/	.	.	.	.	.	.	.	.	.	.	.	.	.	.	.	.	.	.	.	.	.	.	.	.
*	*	*2\right	*2\right	*	*	*	*	*	*	*	*	*2\right	*	*	*	*	*	*	*	*	*	*	*	*	*	*	*	*2\right	*	*	*	*	*	*	*	*2\right
[2C/	.	2ee\	2gg\	2C/	-ri-	.	Pan-	.	.	rze-	1ryy	2g\	-ri-	.	Pan-	.	.	.	rzecz-	2e/	-ry-	-le-	Pan-	.	-naś	-sta-	rzecz-	2cc\	-ri-	-le-	Pan-	-naś	-ta-	rzecz-	2e/	2cc\
8C/L]	.	2ee\	2gg\	2C/	-a	.	-skiey	.	.	-czmy	.	2g\	-a	.	-kiey	.	.	.	-my	2e/	-a,	-bna,	-skiey,	.	ty	-mi	-my	2cc\	-a	-bna	-skiey	ty	-mi	-my	2e/	2cc\
8D/	.	.	.	.	.	.	.	.	.	.	.	.	.	.	.	.	.	.	.	.	.	.	.	.	.	.	.	.	.	.	.	.	.	.	.	.
8E/	6	.	.	.	.	.	.	.	.	.	.	.	.	.	.	.	.	.	.	.	.	.	.	.	.	.	.	.	.	.	.	.	.	.	.	.
8F/J	.	.	.	.	.	.	.	.	.	.	.	.	.	.	.	.	.	.	.	.	.	.	.	.	.	.	.	.	.	.	.	.	.	.	.	.
=3	=3	=3	=3	=3	=3	=3	=3	=3	=3	=3	=3	=3	=3	=3	=3	=3	=3	=3	=3	=3	=3	=3	=3	=3	=3	=3	=3	=3	=3	=3	=3	=3	=3	=3	=3	=3
4G\	n	4dd\	4gg\	4G\	Nie-	.	Czys-	.	.	Wier-	1ryy	4g\	nie-	.	Czys-	.	.	.	wier-	4b-\	nie-	u-	Czys-	.	nad	Czys-	wier-	4dd\	nie-	u-	Czÿ-	nad	czys-	wier-	4bn\	4dd\
4E\	6	4cc\	4gg\	4E\	-bie-	.	-tos-	.	.	.	.	4g\	-bies-	.	-tos-	.	.	.	-ni	4g\	-bies-	-każ	-tos-	.	wzy-	-te-	-ni	4ee\	-bie-	-każ	-sto-	wszy-	-te-	-ni	4cc\	4ee\
!	!	!	!	!LO:TX:t=P:global:problem=oddech jako rozdzielacz słów	!	!	!	!	!	!	!	!	!	!	!	!	!	!	!	!	!	!	!	!	!	!	!	!	!	!	!	!	!	!	!	!
4D\	-	4a/	4aa\	4D,<\	-ska	.	-ci	.	.	-ni	.	4a\	-ka	.	-ci	.	.	.	Chrze-	4a\	-ka	dro-	-ci	.	-tko	-mi	Chrześ-	4ff\	-ska	dro-	-sci	-tko	-mi	Chrzes-	4dd\	4ff\
8A\L	5	4cc\	4aa\	(8A\L	Li-	.	A-	.	.	Chrz-	.	4a\	Li-	.	An-	.	.	.	-ci-	4e/	Li-	-gę	An-	.	Stwo-	Pan-	-ci-	4cc\	Li-	-gę	Pa-	Stwo-	Pan-	-ci-	4e/	4cc\
8G\J	6 4 2	.	.	8G\J)	.	.	.	.	.	.	.	.	.	.	.	.	.	.	.	.	.	.	.	.	.	.	.	.	.	.	.	.	.	.	.	.
=4	=4	=4	=4	=4	=4	=4	=4	=4	=4	=4	=4	=4	=4	=4	=4	=4	=4	=4	=4	=4	=4	=4	=4	=4	=4	=4	=4	=4	=4	=4	=4	=4	=4	=4	=4	=4
!LO:TX:t=P:problem=mixed beam	!	!	!	!	!	!	!	!	!	!	!	!	!	!	!	!	!	!	!	!LO:TX:t=P:problem=łuk z kropką wyglądający jak fermata	!	!	!	!	!	!	!	!	!	!	!	!	!	!	!	!
8F\L	6 5	2dd\	4aa\	(8F\L	.	.	-niels-	.	.	-ci-	1ryy	(4a\	-li-	.	-giels-	.	.	.	-a-	(4f/	-li-	Pew-	-iels-	.	-rze-	-na-	-a-	4cc\	.	pe-	-niel-	-rze-	-na-	-a-	8c/L	4a/
8D\	.	.	.	8D\J)	.	.	.	.	.	.	.	.	.	.	.	.	.	.	.	.	.	.	.	.	.	.	.	.	.	.	.	.	.	.	16f/L	.
.	.	.	.	.	.	.	.	.	.	.	.	.	.	.	.	.	.	.	.	.	.	.	.	.	.	.	.	.	.	.	.	.	.	.	16e/JJ	.
!	!	!	!	!LO:TX:t=P:problem=mixed beam	!	!	!	!	!	!	!	!	!	!	!	!	!	!	!	!	!	!	!	!	!	!	!	!	!	!	!	!	!	!	!	!
8G\	n	.	4gg\	8G\L	-li-	.	.	.	.	-a-	.	4g\)	.	.	.	.	.	.	.	4d/)	.	.	.	.	.	.	.	(4bn\	-li-	.	.	.	.	.	8d/L	4bn/
8GG/J	.	.	.	8GG/J	.	.	.	.	.	.	.	.	.	.	.	.	.	.	.	.	.	.	.	.	.	.	.	.	.	.	.	.	.	.	16g/L	.
.	.	.	.	.	.	.	.	.	.	.	.	.	.	.	.	.	.	.	.	.	.	.	.	.	.	.	.	.	.	.	.	.	.	.	16f/JJ	.
8C\L	.	2ee\	2gg;\	2C/	-a	.	-kiey,	.	.	-nie,	.	2g\	-a,	.	-kiey	.	.	.	-nie,	2e/	-a,	-ną	-ki,	.	-nie,	-mi	-nie	2cc\)	-a	-wną	-skiey	-nie	-mi	-nie	2e/	2cc\
8D\	.	.	.	.	.	.	.	.	.	.	.	.	.	.	.	.	.	.	.	.	.	.	.	.	.	.	.	.	.	.	.	.	.	.	.	.
8E\	.	.	.	.	.	.	.	.	.	.	.	.	.	.	.	.	.	.	.	.	.	.	.	.	.	.	.	.	.	.	.	.	.	.	.	.
8F#X\J	.	.	.	.	.	.	.	.	.	.	.	.	.	.	.	.	.	.	.	.	.	.	.	.	.	.	.	.	.	.	.	.	.	.	.	.
=5	=5	=5	=5	=5	=5	=5	=5	=5	=5	=5	=5	=5	=5	=5	=5	=5	=5	=5	=5	=5	=5	=5	=5	=5	=5	=5	=5	=5	=5	=5	=5	=5	=5	=5	=5	=5
4G\	-	4dd\	4gg\	4G\	Pa-	.	Pan-	.	.	Cos	1ryy	4g\	Pa-	.	Pan-	.	.	.	Cos-	4g/	Pa-	Przy-	Pan-	.	Pan	Tyś	Cos-	4b-X\	Pa-	Przy-	Pan-	Pan	Tys	Cos-	4gg\	4bb-X\
8c\L	.	4cc\	4gg\	(8c\L	-nu	.	-naś	.	.	cię	.	4g\	-nu	.	-naś	.	.	.	-cie	4e/	-nu	-ka-	-nas	.	bo	Sa-	-cie	4g\	-nu	-ka-	-naś	bo	Sa-	-cie	4ee\	4gg\
8B-X\J	6 4 2	.	.	8B-X\J)	.	.	.	.	.	.	.	.	.	.	.	.	.	.	.	.	.	.	.	.	.	.	.	.	.	.	.	.	.	.	.	.
4A\	6	4cc\	4cc\	4A\	Bo-	.	nad	.	.	sie	.	4c/	Bo-	.	nad	.	.	.	sie	4f/	Bo-	-za-	nad	.	wszech-	-ma	się	4a\	Bo-	-za-	nad	wszech-	-ma	sie	4ff\	4aa\
4G\	6\	4b-X\	4ee\	4G\	-gu	.	Pa-	.	.	tu	.	4e\	-gu	.	Pan-	.	.	.	tu	4g/	-gu	-nia	Pan-	.	-mo-	nay-	tu	4b-X\	-gu	-nia	Pan-	-mo-	naÿ-	tu	4gg\	4bb-X\
=6	=6	=6	=6	=6	=6	=6	=6	=6	=6	=6	=6	=6	=6	=6	=6	=6	=6	=6	=6	=6	=6	=6	=6	=6	=6	=6	=6	=6	=6	=6	=6	=6	=6	=6	=6	=6
!LO:TX:t=P:problem=mixed beam	!	!	!	!	!	!	!	!	!	!	!	!	!	!	!	!	!	!	!	!LO:TX:t=P:problem=łuk z kropką wyglądający jak fermata	!	!	!	!	!	!	!	!	!	!	!	!	!	!	!	!
8F\L	.	8cc\L	4ff\	(8F\L	mi-	.	-na-	.	.	Zesz-	1ryy	(4f\	mi-	.	-na-	.	.	.	zesz-	(4f/	mi-	twe-	-na-	.	-gą-	-czyst-	ze-	(4a\	mi-	twe-	-na-	-gą-	-czy-	ze-	8cc\	4aa\
8BB-X\	7 6	8dd\J	.	8BB-X\J)	.	.	.	.	.	.	.	.	.	.	.	.	.	.	.	.	.	.	.	.	.	.	.	.	.	.	.	.	.	.	4ff\	.
8C\	.	4cc\	4gg\	4C/	.	.	.	.	.	.	.	4g\)	.	.	.	.	.	.	.	4e/)	.	.	.	.	.	.	.	4g\)	.	.	.	.	.	.	.	4gg\
8CC/J	4	.	.	.	.	.	.	.	.	.	.	.	.	.	.	.	.	.	.	.	.	.	.	.	.	.	.	.	.	.	.	.	.	.	8ee\	.
.	3	.	.	.	.	.	.	.	.	.	.	.	.	.	.	.	.	.	.	.	.	.	.	.	.	.	.	.	.	.	.	.	.	.	.	.
*	*	*	*	*	*	*	*	*	*	*	*	*	*	*	*	*	*	*	*	*	*v:1	*v:2	*v:3	*	*v:4	*v:5	*v:6	*	*	*	*	*	*	*	*2\right	*
!	!	!	!	!	!	!	!	!	!	!	!	!	!	!	!	!	!	!	!	!LO:LB:g=original	!	!	!	!	!	!	!	!	!	!	!	!	!	!	!	!
8FF/L	.	2cc\	2aa\	2FF/	-ła,	.	-mi,	.	.	-li,	.	2a\	-ła	.	-mi,	.	.	.	-li,	2f/	-ła	-go	-mi,	.	-cy,	-sza	-sli	2f/	-ła,	-go	-mi,	-cy,	-stsza	-sli	2ff\	2ff\
8GG/	.	.	.	.	.	.	.	.	.	.	.	.	.	.	.	.	.	.	.	.	.	.	.	.	.	.	.	.	.	.	.	.	.	.	.	.
8AA/	.	.	.	.	.	.	.	.	.	.	.	.	.	.	.	.	.	.	.	.	.	.	.	.	.	.	.	.	.	.	.	.	.	.	.	.
8FF/J	.	.	.	.	.	.	.	.	.	.	.	.	.	.	.	.	.	.	.	.	.	.	.	.	.	.	.	.	.	.	.	.	.	.	.	.
!LO:LB:g=original	!	!	!	!	!	!	!	!	!	!	!	!	!	!	!	!	!	!	!	!	!	!	!	!	!	!	!	!	!	!	!	!	!	!	!	!
=7	=7	=7	=7	=7	=7	=7	=7	=7	=7	=7	=7	=7	=7	=7	=7	=7	=7	=7	=7	=7	=7	=7	=7	=7	=7	=7	=7	=7	=7	=7	=7	=7	=7	=7	=7	=7
!	!	!LO:TX:a:t=1	!LO:TX:a:t=1	!LO:TX:a:t=1	!	!	!	!	!	!	!	!LO:TX:a:t=1	!	!	!	!	!	!	!	!	!	!	!	!	!	!	!	!	!	!	!	!	!	!	!	!
4Cn/	.	1r	1r	1r	.	.	.	.	.	.	1ryy	1r	.	.	.	.	.	.	.	4cc\	Ma-	Bo-	Świen-	[[O.	dał	Sios-	ku	4ee\	Mat-	Bo-	Świę-	dał	Sio-	ku	4cc\	4ee\
4r	.	.	.	.	.	.	.	.	.	.	.	.	.	.	.	.	.	.	.	4dd\	-tko	-ga	-ta	nay-	przes	-trzycz-	Chwa-	4ff\	-ko	-ga	-ta	przez	-strzy-	Chwa-	4dd\	4ff\
4C/	.	.	.	.	.	.	.	.	.	.	.	.	.	.	.	.	.	.	.	4ee\	Li-	wszech-	nad	-swięt-	cię	-ko	-le	4gg\	Li-	wszech -	nad	cię	-czka	-le	4ee\	4gg\
4r	.	.	.	.	.	.	.	.	.	.	.	.	.	.	.	.	.	.	.	4ff\	-to-	-mo-	Świę-	.=-za	zba-	An-	tey	4aa\	-to-	-moc-	Świę-	zba-	An-	tey	4ff\	4aa\
!	!	!LO:LB:g=original	!	!LO:LB:g=original	!	!	!	!	!	!	!	!LO:LB:g=original	!	!	!	!	!	!	!	!	!	!	!	!	!	!	!	!LO:LB:g=original	!	!	!	!	!	!	!	!
=8	=8	=8	=8	=8	=8	=8	=8	=8	=8	=8	=8	=8	=8	=8	=8	=8	=8	=8	=8	=8	=8	=8	=8	=8	=8	=8	=8	=8	=8	=8	=8	=8	=8	=8	=8	=8
*	*	*	*	*	*v:1	*v:2	*v:3	*v:4	*v:5	*v:6	*	*	*v:1	*v:2	*v:3	*v:4	*v:5	*v:6	*v:6	*	*	*	*	*	*	*	*	*	*v:1	*v:2	*v:3	*v:4	*v:5	*v:6	*	*
!	!	!	!	!	!	!	!	!	!	!	!	!	!	!	!	!	!	!	!	!LO:TX:t=P:problem=łuk z kropką wyglądający jak fermata	!	!	!	!	!	!	!	!	!	!	!	!	!	!	!	!
4C/	.	4gg\	4ee\	4C/	Ma-	Tacet	Świę-	Błogosławionaś	Między	Ku	1ryy	4e\	Mat-	Maria	Świę-	Błogosławionaś Ty	Między	[[6 A-	Ku	(4ee\	.	-cne-	-te-	Ma-	-wie-	-giel-	Pan-	4gg\	.	-ne-	-[ty-]	-wie-	.	Pan-	4ee\	4gg\
4D\	6\	4bn\	4ff\	4D/	-tko	.	-ta	Ty	Niewiaſtami	Chwa-	.	4f\	-ko	Tacet	-ta	Tacet	Niewiaſtami	-men	Chwa-	4dd\)	.	.	.	.	.	.	.	4ff\	.	.	.	.	.	.	4dd\	4ff\
*	*	*	*	*	*	*	*	*	*	*	*	*	*	*	*	*	*	*	*	*2\right	*	*	*	*	*	*	*	*	*	*	*	*	*	*	*	*
4E\	6	4cc\	4gg\	4E\	Li-	.	nad	Tacet	Tacet	-le	.	4g\	Li-	.	nad	.	Tacet	wsy-	-le	2cc\	.	.	.	.	.	.	.	2ee\	.	.	.	.	.	.	[2cc\	2ee\
!	!	!LO:TX:t=P:problem=mixed beam	!	!	!	!	!	!	!	!	!	!	!	!	!	!	!	!	!	!	!	!	!	!	!	!	!	!	!	!	!	!	!	!	!	!
4F\	7 5	8a/L	4aa\	4F\	-to-	.	Świę-	.	.	tey	.	4a\	-to-	.	Świę-	.	.	-scy	tey	.	.	.	.	.	.	.	.	.	.	.	.	.	.	.	.	.
.	.	8ff\J	.	.	.	.	.	.	.	.	.	.	.	.	.	.	.	.	.	.	.	.	.	.	.	.	.	.	.	.	.	.	.	.	.	.
=9	=9	=9	=9	=9	=9	=9	=9	=9	=9	=9	=9	=9	=9	=9	=9	=9	=9	=9	=9	=9	=9	=9	=9	=9	=9	=9	=9	=9	=9	=9	=9	=9	=9	=9	=9	=9
!LO:TX:t=P:problem=mixed beam	!	!	!	!	!	!	!	!	!	!	!	!	!	!	!	!	!	!	!	!	!	!	!	!	!	!	!	!	!	!	!	!	!	!	!	!
8G\L	5 4	2dd\	2gg\	(8G\L	-sci-	.	-te-	.	.	Pan-	1ryy	2g\	-sci-	.	-te-	.	.	rzecz-	Pan-	(4cc\	-sci-	.	.	.	.	.	.	2ddT\	-ści-	.	.	.	-giel-	.	4cc\]	2dd\
8F\	.	.	.	8F\J)	.	.	.	.	.	.	.	.	.	.	.	.	.	.	.	.	.	.	.	-ri-	.	.	.	.	.	.	.	.	.	.	.	.
8G\	3	.	.	4G\	.	.	.	.	.	.	.	.	.	.	.	.	.	.	.	4bn\)	.	.	.	.	.	.	.	.	.	.	.	.	.	.	4bn\	.
8GG/J	.	.	.	.	.	.	.	.	.	.	.	.	.	.	.	.	.	.	.	.	.	.	.	.	.	.	.	.	.	.	.	.	.	.	.	.
8C\L	.	2ee\	2gg\	2C/	-wa,	.	-mi	.	.	-nie	.	2g\	-wa,	.	-mi,	.	.	-mÿ,	-nie,	2cc\	-wa,	-go,	-mi	-a	-nie	-ka	-nie,	2cc\	-wa,	-go,	-mi,	-nie,	-ska	-nie,	2cc\	2cc\
8D\	.	.	.	.	.	.	.	.	.	.	.	.	.	.	.	.	.	.	.	.	.	.	.	.	.	.	.	.	.	.	.	.	.	.	.	.
8E\	.	.	.	.	.	.	.	.	.	.	.	.	.	.	.	.	.	.	.	.	.	.	.	.	.	.	.	.	.	.	.	.	.	.	.	.
8C\J	.	.	.	.	.	.	.	.	.	.	.	.	.	.	.	.	.	.	.	.	.	.	.	.	.	.	.	.	.	.	.	.	.	.	.	.
!	!	!	!LO:LB:g=original	!	!	!	!	!	!	!	!	!	!	!	!	!	!	!	!	!	!	!	!	!	!	!	!	!	!	!	!	!	!	!	!LO:LB:g=original	!LO:LB:g=original
=10	=10	=10	=10	=10	=10	=10	=10	=10	=10	=10	=10	=10	=10	=10	=10	=10	=10	=10	=10	=10	=10	=10	=10	=10	=10	=10	=10	=10	=10	=10	=10	=10	=10	=10	=10	=10
4F\	.	4cc\	4aa\	4F\	Tyś	.	O!	.	.	Za-	1ryy	4a\	Tys	.	o!	.	.	wier-	Za-	4f/	Tyś	On	o	modl	Je-	nie	Za-	4f/	Tyś	On	o!	Je-	nie	Za-	4f/	4f/
4C\	.	4cc\	4gg\	4C\	iest	.	Nay-	.	.	-cho-	.	4g\	jeſt	.	Nay-	.	.	-nni]]	-cho-	4e/	jest	ci	nay-	sie	-sus	by-	-cho-	4g/	iest	ci	nay-	-sus	by-	-cho-	4e/	4g/
4F\	.	4cc\	4aa\	4F\	na-	.	-swię-	.	.	-way	.	4a\	na-	.	-swię-	.	.	.	-way	4f/	na-	wszy-	-swię-	dzis	Syn	-ła	-way	4a\	na-	wszy-	-swię-	Syn	-ła	-waj	4f/	4a/
4D\	6\	4dd\	4bbn\	4D\	-sza	.	-tsza	.	.	nas	.	4bn\	-sza	.	-tsza	.	.	.	nas	4f/	-sza	-tka	-tsa	za	twoy	Pa-	nas	4f/	-sza	-tka	-tza	twoy	Pa-	nas	4Bn/	4f/
=11	=11	=11	=11	=11	=11	=11	=11	=11	=11	=11	=11	=11	=11	=11	=11	=11	=11	=11	=11	=11	=11	=11	=11	=11	=11	=11	=11	=11	=11	=11	=11	=11	=11	=11	=11	=11
4Cn/	.	4ee\	4ccc\	4C\	U-	.	Ma-	.	.	od	1ryy	4cc\	U-	.	Ma-	.	.	.	od	(4e/	u-	na-	Ma-	na-	od-	-nu	od	4cc\	u-	na-	Ma-	od-	-nu	od	4e/	4cc\
4FF/	6	8ff\L	4aa\	4F\	.	.	.	.	.	złe-	.	(4a\	.	.	.	.	.	.	złe-	4f/)	.	.	.	.	.	.	.	(8dd\L	.	.	.	.	.	.	8f/L	8dd\L
.	.	8ee\J	.	.	.	.	.	.	.	.	.	.	.	.	.	.	.	.	.	.	.	.	.	.	.	.	.	8cc\J)	.	.	.	.	.	.	8e/J	8cc\J
!LO:TX:t=P:problem=mixed beam	!	!	!	!	!	!	!	!	!	!	!	!	!	!	!	!	!	!	!	!	!	!	!	!	!	!	!	!	!	!	!	!	!	!	!	!
8GG/L	n	4.dd\	4.gg\	4G\	-ciecz-	.	-ry-	.	.	.	.	4.g\)	.	.	.	.	.	.	.	2dT/	-ciecz-	-dziei-	-ri-	.	-ku-	Bo-	złe-	4.bnt\	-ciecz-	-dziei-	-ri-	-ku-	Bo-	złe-	4.d/	4.bn\
8G\	.	.	.	.	.	.	.	.	.	.	.	.	.	.	.	.	.	.	.	.	.	.	.	.	.	.	.	.	.	.	.	.	.	.	.	.
8F\	6 4	.	.	(8F\L	.	.	.	.	.	.	.	.	.	.	.	.	.	.	.	.	.	.	.	.	.	.	.	.	.	.	.	.	.	.	.	.
8G\J	.	8dd\	8gg\	8G\J)	.	.	.	.	.	.	.	8g\	-ciecz-	.	-ri-	.	.	.	.	.	.	.	.	.	.	.	.	8b\	.	.	.	.	.	.	8d/	8b\
=12	=12	=12	=12	=12	=12	=12	=12	=12	=12	=12	=12	=12	=12	=12	=12	=12	=12	=12	=12	=12	=12	=12	=12	=12	=12	=12	=12	=12	=12	=12	=12	=12	=12	=12	=12	=12
!	!	!	!	!	!	!	!	!	!	!	!	!	!	!	!	!	!	!	!	!	!	!	!	!	!	!	!	!LO:TX:t=P:problem=oddech jako rozdzielacz słów	!	!	!	!	!	!	!	!
8C\L	.	2ee\	2gg\	2C,</	-ka	.	-a,	.	.	-go,	1ryy	2g\	-ka	.	-a	.	.	.	-go	2e/	-ka	-a.	-a	-mi]]	-pił	-gu	-go	2cc,<\	-ka	-a	-a,	-pił	-gu	-go	2e/	2cc\
8D\	.	.	.	.	.	.	.	.	.	.	.	.	.	.	.	.	.	.	.	.	.	.	.	.	.	.	.	.	.	.	.	.	.	.	.	.
8E\	6	.	.	.	.	.	.	.	.	.	.	.	.	.	.	.	.	.	.	.	.	.	.	.	.	.	.	.	.	.	.	.	.	.	.	.
8C\J	.	.	.	.	.	.	.	.	.	.	.	.	.	.	.	.	.	.	.	.	.	.	.	.	.	.	.	.	.	.	.	.	.	.	.	.
!	!	!	!	!	!	!	!	!	!	!	!	!	!	!	!	!	!	!	!	!LO:LB:g=original	!	!	!	!	!	!	!	!	!	!	!	!	!	!	!	!
*	*	*	*	*	*	*	*	*	*	*	*	*	*	*	*	*	*	*	*	*	*v:1	*v:2	*v:3	*	*v:4	*v:5	*v:6	*	*	*	*	*	*	*	*	*
4F\	.	4cc\	4aa\	4F\	nay-	.	modl	.	.	Swo-	.	(4a\	Nay-	.	modl	.	.	.	Swo-	4f/	Naj-	Zba-	modl	.	wszy-	ża-	Swo-	4f/	Nay-	Zba-	modl	wszy-	ża-	swo-	4f/	4f/
!LO:LB:g=original	!	!	!	!	!	!	!	!	!	!	!	!	!	!	!	!	!	!	!	!	!	!	!	!	!	!	!	!	!	!	!	!	!	!	!	!
8c\L	.	4cc\	4gg\	(8c\L	-ſwię-	.	sie	.	.	-ie-	.	4g\)	.	.	.	.	.	.	-je-	4e/	-swię-	-wie-	sie	.	-tko	-dna	-ie-	4g/	-świę-	-wie-	sie	-tko	-dna	-ie-	4e/	4g/
8B-X\J	6 5	.	.	8B-X\J)	.	.	.	.	.	.	.	.	.	.	.	.	.	.	.	.	.	.	.	.	.	.	.	.	.	.	.	.	.	.	.	.
=13	=13	=13	=13	=13	=13	=13	=13	=13	=13	=13	=13	=13	=13	=13	=13	=13	=13	=13	=13	=13	=13	=13	=13	=13	=13	=13	=13	=13	=13	=13	=13	=13	=13	=13	=13	=13
4A\	6	4cc\	4ff\	4A\	-tsza	.	dzis	.	.	-mi	1ryy	4f\	-swię-	.	się	.	.	.	-mi	4f/	-tsza	-nia	dziś	.	lud-	nad	-mi	4a\	-tsza	-nia	dziś	lud-	nad	-mi	4f/	4a/
!LO:TX:t=P:problem=przed nutą bemol C	!	!	!	!	!	!	!	!	!	!	!	!	!	!	!	!	!	!	!	!	!	!	!	!	!	!	!	!	!	!	!	!	!	!	!	!
4G\	6\	4b-X\	4ff\	4G\	Ma-	.	za	.	.	proz-	.	4e\	-tsza	.	dzis	.	.	.	pros-	4g/	Ma-	na-	za	.	-skie	cię	Pro-	4b-X\	Ma-	na-	za	-skie	cię	Pro-	4g/	4b-X/
!LO:TX:t=P:problem=mixed beam	!	!	!	!	!	!	!	!	!	!	!	!	!	!	!	!	!	!	!	!	!	!	!	!	!	!	!	!	!	!	!	!	!	!	!	!
8F\L	.	8cc\L	8ff\L	(8F\L	-ry-	.	na-	.	.	-ba-	.	8f\L	Ma-	.	za	.	.	.	-ba-	[4f/	-ri-	-sze-	na-	.	ple-	mil-	-zba-	(8.a\L	.	-sze-	na-	ple-	milsz-	-zba-	8c/	8.a/L
8BB-X/	6 5	8dd\J	8bb-X\J	8BB-X\J)	.	.	.	.	.	.	.	8b-X\J	.	.	.	.	.	.	.	.	.	.	.	.	.	.	.	.	.	.	.	.	.	.	4f/	.
.	.	.	.	.	.	.	.	.	.	.	.	.	.	.	.	.	.	.	.	.	.	.	.	.	.	.	.	16g\Jk)	.	.	.	.	.	.	.	16g/Jk
.	.	.	.	.	.	.	.	.	.	.	.	8qqa/	.	.	.	.	.	.	.	.	.	.	.	.	.	.	.	.	.	.	.	.	.	.	.	.
8C/	5	4cc\	8.gg\L	4C/	.	.	.	.	.	.	.	4g\	-ri-	.	na-	.	.	.	.	8.f/L]	.	.	.	.	.	.	.	4g/	-ry-	.	.	.	.	.	.	4g/
8CC/J	3	.	.	.	.	.	.	.	.	.	.	.	.	.	.	.	.	.	.	.	.	.	.	.	.	.	.	.	.	.	.	.	.	.	8e/	.
.	.	.	16gg\Jk	.	.	.	.	.	.	.	.	.	.	.	.	.	.	.	.	16e/Jk	.	.	.	.	.	.	.	.	.	.	.	.	.	.	.	.
=14	=14	=14	=14	=14	=14	=14	=14	=14	=14	=14	=14	=14	=14	=14	=14	=14	=14	=14	=14	=14	=14	=14	=14	=14	=14	=14	=14	=14	=14	=14	=14	=14	=14	=14	=14	=14
1FF;	.	1cc	1aa	1FF	-a	.	-mi	.	.	-mi Amen:	1ryy	1a	-a	.	-mi	.	.	.	-mi	1f	-a	-go	-mi	.	-nie	-sza	-mi	1f;	-a	-go	-mi	-nie	-a	-mi	1f	1f
==	==	==	==	==;;	==	==	==	==	==	==	==	==;;	==	==	==	==	==	==	==	==;;	==	==	==	==	==	==	==	==	==	==	==	==	==	==	==;;	==;;
*-	*-	*-	*-	*-	*-	*-	*-	*-	*-	*-	*-	*-	*-	*-	*-	*-	*-	*-	*-	*-	*-	*-	*-	*-	*-	*-	*-	*-	*-	*-	*-	*-	*-	*-	*-	*-
!!!system-decoration: [(g1)][(g2)][(g3)]s10
!!!RDF**kern: < = below
!!!ENC: Anastazja Marusiak
!!!END: 2020-08-13
!!!ENC: Marta Lawrence
!!!END: 2022-02-05
